X:1
T:The Braes,of Belquether
M:2/4
L:1/8
K:C
 AA| D2E/2-^F/2 G| A2 AA| D3/2- E/2 ^FG| E D2 C/2C/2| D2E/2-^F/2 G|\
 A2 A3/2 B/2| ccB/2-A/2 G| BAA/2-B/2 c| d2 Ad|c-B AG| A3/2- B/2 A3/2 G/2|\
 E D2 C/2C/2| D2E/2-^F/2 G| A2 G3/2 G/2| A A2 G| ED||
